svgs/park4night.svg

<svg width="192" height="192" viewBox="0 0 192 192" fill="none" xmlns="http://www.w3.org/2000/svg">
<path d="M141.521 154.986C141.521 162.718 135.253 168.986 127.521 168.986C119.789 168.986 113.521 162.718 113.521 154.986C113.521 147.254 119.789 140.986 127.521 140.986C135.253 140.986 141.521 147.254 141.521 154.986Z" stroke="black" stroke-width="12"/>
<path d="M135.233 69.1645L170.727 106.736C170.902 106.922 171 107.168 171 107.423L171 150.215C171 150.767 170.552 151.215 170 151.215H161.227C160.997 151.215 160.704 151.134 160.365 150.815C160.002 150.472 159.682 149.928 159.556 149.288C156.482 133.638 143.107 121.555 126.815 121.555C110.523 121.555 97.1486 133.638 94.0744 149.288C93.9486 149.928 93.6287 150.472 93.2653 150.815C92.9262 151.134 92.6333 151.215 92.4033 151.215H48.8288C48.5638 151.215 48.3852 151.143 48.2279 151.028C48.0435 150.894 47.8395 150.656 47.698 150.316C47.3991 149.596 47.5587 148.996 47.896 148.631C60.3818 135.122 80.6617 110.395 88.8507 84.1624C90.4482 79.8134 91.5648 75.1972 92.1024 70.3951C92.157 69.9067 92.3823 69.4841 92.6703 69.2058C92.9418 68.9434 93.2148 68.8512 93.4672 68.8512L134.506 68.8512C134.781 68.8512 135.044 68.9645 135.233 69.1645Z" stroke="black" stroke-width="10" stroke-linejoin="round"/>
<path d="M136.754 68.8512L163.866 100.026H116.072V68.8512L136.754 68.8512ZM136.455 68.5075L136.455 68.5084L136.455 68.5075Z" stroke="black" stroke-width="10" stroke-linejoin="round"/>
<path d="M73.9972 65.3678C74.1942 52.6714 63.8516 42.1929 50.8823 42H50.6853C52.6225 45.4071 53.706 49.3607 53.6403 53.5393C53.4433 66.1714 42.8708 76.2642 30 76.1678C33.9401 83.1106 41.459 87.8356 50.1599 87.9963C63.1293 88.2213 73.8002 78.0642 73.9972 65.3678Z" stroke="black" stroke-width="12" stroke-linejoin="round"/>
<path d="M139.931 23.6776L159.774 52H92.0887C92.0862 51.9993 92.0818 51.998 92.0756 51.9958C92.051 51.9868 91.9859 51.9584 91.8904 51.8844C91.6832 51.7238 91.4314 51.4218 91.2632 51.0045C87.0266 40.4942 77.3821 31.2614 68.881 24.5816C68.841 24.5502 68.7479 24.4715 68.6803 24.19C68.603 23.8678 68.5995 23.3965 68.7468 22.8968C68.8957 22.3921 69.1235 22.1053 69.2371 22.0036C69.2384 22.0023 69.2398 22.0011 69.2411 22L137.021 22C137.969 22 139.099 22.4977 139.928 23.6734C139.929 23.6748 139.93 23.6762 139.931 23.6776Z" stroke="black" stroke-width="12" stroke-linejoin="round"/>
</svg>

<svg xmlns="http://www.w3.org/2000/svg" width="192" height="192" fill="none" stroke="#000" stroke-linejoin="round" stroke-width="12" viewBox="0 0 192 192"><path d="M141.521 154.986c0 7.732-6.268 14-14 14s-14-6.268-14-14 6.268-14 14-14 14 6.268 14 14Z"/><path stroke-width="10" d="m135.233 69.165 35.494 37.571c.175.186.273.432.273.687v42.792a1 1 0 0 1-1 1h-8.773c-.23 0-.523-.081-.862-.4-.363-.343-.683-.887-.809-1.527-3.074-15.65-16.449-27.733-32.741-27.733-16.292 0-29.666 12.083-32.74 27.733-.126.64-.446 1.184-.81 1.527-.339.319-.632.4-.862.4H48.83a.952.952 0 0 1-.601-.187 1.675 1.675 0 0 1-.53-.712c-.299-.72-.14-1.32.198-1.685 12.486-13.509 32.766-38.236 40.955-64.469a58.942 58.942 0 0 0 3.251-13.767c.055-.488.28-.91.568-1.19.272-.262.545-.354.797-.354h41.039a1 1 0 0 1 .727.314Z"/><path stroke-width="10" d="m136.754 68.851 27.112 31.175h-47.794V68.851h20.682Zm-.299-.344v.001Z"/><path d="M73.997 65.368C74.194 52.67 63.852 42.193 50.882 42h-.197a22.581 22.581 0 0 1 2.955 11.54C53.443 66.17 42.87 76.263 30 76.167c3.94 6.943 11.459 11.668 20.16 11.828 12.97.225 23.64-9.932 23.837-22.628Zm65.934-41.69L159.774 52H92.089a.73.73 0 0 1-.198-.116c-.208-.16-.46-.462-.628-.88-4.236-10.51-13.88-19.743-22.382-26.422-.04-.032-.133-.11-.2-.392-.078-.322-.081-.794.066-1.293.149-.505.377-.792.49-.893a.065.065 0 0 1 .004-.004h67.78c.948 0 2.078.498 2.907 1.673l.003.005Z"/></svg>
